(Exported by FreeCAD)
(Post Processor: mach3_mach4_post)
(Output Time:2024-07-14 10:37:06.611693)
(begin preamble)
G17 G54 G40 G49 G80 G90
G20
(begin operation: Fixture)
(machine: mach3_4, in/min)
G54
(finish operation: Fixture)
(begin operation: SpeTool 1/4" Downcut Carbide End Mill001)
(machine: mach3_4, in/min)
(SpeTool 1/4" Downcut Carbide End Mill001)
M5
M6 T2 
G43 H2
M3 S12000
(finish operation: SpeTool 1/4" Downcut Carbide End Mill001)
(begin operation: RampEntryCircle)
(machine: mach3_4, in/min)
G0 X0.0000 Y0.0000 Z0.1969
G0 X22.0749 Y22.0870 Z0.1969
G0 X22.0749 Y22.0870 Z0.1181
G1 X22.1867 Y21.9734 Z0.0261 F100.0000
G1 X22.2969 Y21.8582 Z-0.0659 F100.0000
G1 X22.1867 Y21.9734 Z-0.1580 F100.0000
G1 X22.0749 Y22.0870 Z-0.2500 F100.0000
G2 X14.7728 Y3.8031 Z-0.2500 I-7.5749 J-7.5749 F100.0000
G2 X3.7910 Y14.2398 Z-0.2500 I-0.2728 J10.7090 F100.0000
G2 X14.2281 Y25.2211 Z-0.2500 I10.7090 J0.2724 F100.0000
G2 X22.0749 Y22.0870 Z-0.2500 I0.2719 J-10.7090 F100.0000
G1 X22.1510 Y22.0101 Z-0.3125 F100.0000
G1 X22.2264 Y21.9324 Z-0.3750 F100.0000
G1 X22.1510 Y22.0101 Z-0.4375 F100.0000
G1 X22.0749 Y22.0870 Z-0.5000 F100.0000
G2 X14.7728 Y3.8031 Z-0.5000 I-7.5749 J-7.5749 F100.0000
G2 X3.7910 Y14.2398 Z-0.5000 I-0.2728 J10.7090 F100.0000
G2 X14.2281 Y25.2211 Z-0.5000 I10.7090 J0.2724 F100.0000
G2 X22.0749 Y22.0870 Z-0.5000 I0.2719 J-10.7090 F100.0000
G1 X22.1510 Y22.0101 Z-0.5625 F100.0000
G1 X22.2264 Y21.9324 Z-0.6250 F100.0000
G1 X22.1510 Y22.0101 Z-0.6875 F100.0000
G1 X22.0749 Y22.0870 Z-0.7500 F100.0000
G2 X23.7730 Y19.8758 Z-0.7500 I-7.5749 J-7.5749 F100.0000
G1 X23.8331 Y19.7706 Z-0.6290 F100.0000
G1 X23.8919 Y19.6647 Z-0.5080 F100.0000
G2 X24.7587 Y17.5971 Z-0.5080 I-9.3919 J-5.1525 F100.0000
G1 X24.7929 Y17.4808 Z-0.6290 F100.0000
G1 X24.8258 Y17.3641 Z-0.7500 F100.0000
G2 X24.8728 Y11.8359 Z-0.7500 I-10.3258 J-2.8520 F100.0000
G1 X24.8418 Y11.7187 Z-0.6290 F100.0000
G1 X24.8096 Y11.6018 Z-0.5080 F100.0000
G2 X23.9781 Y9.5198 Z-0.5080 I-10.3096 J2.9103 F100.0000
G1 X23.9210 Y9.4129 Z-0.6290 F100.0000
G1 X23.8627 Y9.3066 Z-0.7500 F100.0000
G2 X20.0204 Y5.3316 Z-0.7500 I-9.3627 J5.2055 F100.0000
G1 X19.9162 Y5.2697 Z-0.6290 F100.0000
G1 X19.8113 Y5.2090 Z-0.5080 F100.0000
G2 X17.7587 Y4.3073 Z-0.5080 I-5.3113 J9.3031 F100.0000
G1 X17.6430 Y4.2711 Z-0.6290 F100.0000
G1 X17.5269 Y4.2362 Z-0.7500 F100.0000
G2 X14.7728 Y3.8031 Z-0.7500 I-3.0269 J10.2759 F100.0000
G2 X8.1673 Y5.8719 Z-0.7500 I-0.2728 J10.7090 F100.0000
G1 X8.0699 Y5.9441 Z-0.6290 F100.0000
G1 X7.9734 Y6.0174 Z-0.5080 F100.0000
G2 X6.3483 Y7.5618 Z-0.5080 I6.5266 J8.4947 F100.0000
G1 X6.2702 Y7.6545 Z-0.6290 F100.0000
G1 X6.1931 Y7.7480 Z-0.7500 F100.0000
G2 X3.7910 Y14.2398 Z-0.7500 I8.3069 J6.7641 F100.0000
G2 X4.0941 Y17.0567 Z-0.7500 I10.7090 J0.2724 F100.0000
G1 X4.1236 Y17.1742 Z-0.6290 F100.0000
G1 X4.1544 Y17.2915 Z-0.5080 F100.0000
G2 X4.9594 Y19.3839 Z-0.5080 I10.3456 J-2.7793 F100.0000
G1 X5.0151 Y19.4915 Z-0.6290 F100.0000
G1 X5.0721 Y19.5985 Z-0.7500 F100.0000
G2 X8.9414 Y23.6696 Z-0.7500 I9.4279 J-5.0864 F100.0000
G1 X9.0454 Y23.7319 Z-0.6290 F100.0000
G1 X9.1500 Y23.7930 Z-0.5080 F100.0000
G2 X11.1988 Y24.7033 Z-0.5080 I5.3500 J-9.2809 F100.0000
G1 X11.3143 Y24.7400 Z-0.6290 F100.0000
G1 X11.4303 Y24.7754 Z-0.7500 F100.0000
G2 X14.2281 Y25.2211 Z-0.7500 I3.0697 J-10.2632 F100.0000
G2 X22.0749 Y22.0870 Z-0.7500 I0.2719 J-10.7090 F100.0000
G1 X22.0798 Y22.0821 Z-0.7540 F100.0000
G1 X22.0749 Y22.0870 Z-0.7580 F100.0000
G2 X23.7689 Y19.8828 Z-0.7580 I-7.5749 J-7.5749 F100.0000
G1 X23.8311 Y19.7741 Z-0.6330 F100.0000
G1 X23.8919 Y19.6647 Z-0.5080 F100.0000
G2 X24.7587 Y17.5971 Z-0.5080 I-9.3919 J-5.1525 F100.0000
G1 X24.7940 Y17.4770 Z-0.6330 F100.0000
G1 X24.8280 Y17.3564 Z-0.7580 F100.0000
G2 X24.8748 Y11.8436 Z-0.7580 I-10.3280 J-2.8443 F100.0000
G1 X24.8429 Y11.7225 Z-0.6330 F100.0000
G1 X24.8096 Y11.6018 Z-0.5080 F100.0000
G2 X23.9781 Y9.5198 Z-0.5080 I-10.3096 J2.9103 F100.0000
G1 X23.9191 Y9.4094 Z-0.6330 F100.0000
G1 X23.8588 Y9.2996 Z-0.7580 F100.0000
G2 X20.0273 Y5.3357 Z-0.7580 I-9.3588 J5.2125 F100.0000
G1 X19.9196 Y5.2717 Z-0.6330 F100.0000
G1 X19.8113 Y5.2090 Z-0.5080 F100.0000
G2 X17.7587 Y4.3073 Z-0.5080 I-5.3113 J9.3031 F100.0000
G1 X17.6392 Y4.2699 Z-0.6330 F100.0000
G1 X17.5193 Y4.2339 Z-0.7580 F100.0000
G2 X14.7728 Y3.8031 Z-0.7580 I-3.0193 J10.2782 F100.0000
G2 X8.1738 Y5.8671 Z-0.7580 I-0.2728 J10.7090 F100.0000
G1 X8.0731 Y5.9417 Z-0.6330 F100.0000
G1 X7.9734 Y6.0174 Z-0.5080 F100.0000
G2 X6.3483 Y7.5618 Z-0.5080 I6.5266 J8.4947 F100.0000
G1 X6.2676 Y7.6575 Z-0.6330 F100.0000
G1 X6.1881 Y7.7542 Z-0.7580 F100.0000
G2 X3.7910 Y14.2398 Z-0.7580 I8.3119 J6.7579 F100.0000
G2 X4.0922 Y17.0489 Z-0.7580 I10.7090 J0.2724 F100.0000
G1 X4.1226 Y17.1704 Z-0.6330 F100.0000
G1 X4.1544 Y17.2915 Z-0.5080 F100.0000
G2 X4.9594 Y19.3839 Z-0.5080 I10.3456 J-2.7793 F100.0000
G1 X5.0170 Y19.4950 Z-0.6330 F100.0000
G1 X5.0759 Y19.6055 Z-0.7580 F100.0000
G2 X8.9345 Y23.6654 Z-0.7580 I9.4241 J-5.0934 F100.0000
G1 X9.0419 Y23.7299 Z-0.6330 F100.0000
G1 X9.1500 Y23.7930 Z-0.5080 F100.0000
G2 X11.1988 Y24.7033 Z-0.5080 I5.3500 J-9.2809 F100.0000
G1 X11.3182 Y24.7412 Z-0.6330 F100.0000
G1 X11.4380 Y24.7776 Z-0.7580 F100.0000
G2 X14.2281 Y25.2211 Z-0.7580 I3.0620 J-10.2655 F100.0000
G2 X22.0749 Y22.0870 Z-0.7580 I0.2719 J-10.7090 F100.0000
G0 X22.0749 Y22.0870 Z0.1969
(finish operation: RampEntryCircle)
(begin operation: SpeTool 3/16" Downcut Carbide End Mill001)
(machine: mach3_4, in/min)
(SpeTool 3/16" Downcut Carbide End Mill001)
M5
M6 T3 
G43 H3
M3 S12000
(finish operation: SpeTool 3/16" Downcut Carbide End Mill001)
(begin operation: Pocket_Shape)
(machine: mach3_4, in/min)
(Pocket_Shape)
G0 Z0.1969
G0 X28.0879 Y27.1227
G0 Z0.1181
G1 X28.0879 Y27.1227 Z-0.1870 F20.0000
G3 X28.0878 Y27.1233 Z-0.1870 I-1.3516 J-0.1307 F100.0000
G1 X27.9983 Y27.1075 Z-0.1870 F100.0000
G1 X27.9820 Y27.1061 Z-0.1870 F100.0000
G1 X1.0179 Y27.1061 Z-0.1870 F100.0000
G1 X1.0017 Y27.1075 Z-0.1870 F100.0000
G1 X0.9122 Y27.1233 Z-0.1870 F100.0000
G3 X0.9065 Y26.9494 Z-0.1870 I1.3469 J-0.1312 F100.0000
G1 X1.7626 Y26.9494 Z-0.1870 F100.0000
G2 X1.8125 Y26.9642 Z-0.1870 I0.0491 J-0.0738 F100.0000
G1 X2.1562 Y26.9642 Z-0.1870 F100.0000
G2 X2.2064 Y26.9494 Z-0.1870 I0.0006 J-0.0902 F100.0000
G1 X26.7939 Y26.9494 Z-0.1870 F100.0000
G2 X26.8437 Y26.9642 Z-0.1870 I0.0491 J-0.0738 F100.0000
G1 X27.1875 Y26.9642 Z-0.1870 F100.0000
G2 X27.2376 Y26.9494 Z-0.1870 I0.0006 J-0.0902 F100.0000
G1 X28.0935 Y26.9494 Z-0.1870 F100.0000
G3 X28.0879 Y27.1227 Z-0.1870 I-1.3573 J0.0427 F100.0000
G0 Z0.1969
G0 X28.0451 Y27.0683 Z0.1969
G0 X28.0451 Y27.0683 Z0.1181
G1 X28.0451 Y27.0683 Z-0.1870 F20.0000
G2 X27.9820 Y27.0594 Z-0.1870 I-0.0828 J0.3559 F100.0000
G1 X1.0179 Y27.0594 Z-0.1870 F100.0000
G2 X0.9548 Y27.0683 Z-0.1870 I0.0197 J0.3651 F100.0000
G3 X0.9532 Y26.9961 Z-0.1870 I1.3131 J-0.0650 F100.0000
G1 X1.7506 Y26.9961 Z-0.1870 F100.0000
G2 X1.7813 Y27.0074 Z-0.1870 I0.0529 J-0.0962 F100.0000
G1 X1.8125 Y27.0109 Z-0.1870 F100.0000
G1 X2.1562 Y27.0109 Z-0.1870 F100.0000
G2 X2.2187 Y26.9961 Z-0.1870 I0.0005 J-0.1369 F100.0000
G1 X26.7818 Y26.9961 Z-0.1870 F100.0000
G2 X26.8125 Y27.0074 Z-0.1870 I0.0529 J-0.0962 F100.0000
G1 X26.8437 Y27.0109 Z-0.1870 F100.0000
G1 X27.1875 Y27.0109 Z-0.1870 F100.0000
G2 X27.2500 Y26.9961 Z-0.1870 I0.0005 J-0.1369 F100.0000
G1 X28.0468 Y26.9961 Z-0.1870 F100.0000
G3 X28.0451 Y27.0683 Z-0.1870 I-0.8688 J0.0168 F100.0000
G0 Z0.1969
G0 X27.0940 Y26.7624 Z0.1969
G0 X27.0940 Y26.7624 Z0.1181
G1 X27.0940 Y26.7624 Z-0.1870 F20.0000
G1 X26.9372 Y26.7624 Z-0.1870 F100.0000
G1 X26.9372 Y2.2619 Z-0.1870 F100.0000
G1 X27.0940 Y2.2619 Z-0.1870 F100.0000
G1 X27.0940 Y26.7624 Z-0.1870 F100.0000
G0 Z0.1969
G0 X27.0472 Y26.7156 Z0.1969
G0 X27.0472 Y26.7156 Z0.1181
G1 X27.0472 Y26.7156 Z-0.1870 F20.0000
G1 X26.9840 Y26.7156 Z-0.1870 F100.0000
G1 X26.9840 Y2.3086 Z-0.1870 F100.0000
G1 X27.0472 Y2.3086 Z-0.1870 F100.0000
G1 X27.0472 Y26.7156 Z-0.1870 F100.0000
G0 Z0.1969
G0 X27.2136 Y2.0749 Z0.1969
G0 X27.2136 Y2.0749 Z0.1181
G1 X27.2136 Y2.0749 Z-0.1870 F20.0000
G2 X27.1875 Y2.0709 Z-0.1870 I-0.0255 J0.0804 F100.0000
G1 X26.8437 Y2.0709 Z-0.1870 F100.0000
G2 X26.8182 Y2.0749 Z-0.1870 I-0.0019 J0.0723 F100.0000
G1 X2.1824 Y2.0749 Z-0.1870 F100.0000
G2 X2.1562 Y2.0709 Z-0.1870 I-0.0255 J0.0804 F100.0000
G1 X1.8125 Y2.0709 Z-0.1870 F100.0000
G2 X1.7870 Y2.0749 Z-0.1870 I-0.0019 J0.0723 F100.0000
G1 X0.9065 Y2.0749 Z-0.1870 F100.0000
G3 X0.9122 Y1.9009 Z-0.1870 I1.3454 J-0.0430 F100.0000
G1 X1.0017 Y1.9167 Z-0.1870 F100.0000
G1 X1.0179 Y1.9181 Z-0.1870 F100.0000
G1 X27.9820 Y1.9181 Z-0.1870 F100.0000
G1 X27.9983 Y1.9167 Z-0.1870 F100.0000
G1 X28.0878 Y1.9009 Z-0.1870 F100.0000
G3 X28.0935 Y2.0749 Z-0.1870 I-1.3582 J0.1315 F100.0000
G1 X27.2136 Y2.0749 Z-0.1870 F100.0000
G0 Z0.1969
G0 X27.2201 Y2.0281 Z0.1969
G0 X27.2201 Y2.0281 Z0.1181
G1 X27.2201 Y2.0281 Z-0.1870 F20.0000
G1 X27.2187 Y2.0277 Z-0.1870 F100.0000
G1 X27.1875 Y2.0242 Z-0.1870 F100.0000
G1 X26.8437 Y2.0242 Z-0.1870 F100.0000
G2 X26.8124 Y2.0281 Z-0.1870 I-0.0026 J0.1058 F100.0000
G1 X2.1888 Y2.0281 Z-0.1870 F100.0000
G1 X2.1875 Y2.0277 Z-0.1870 F100.0000
G1 X2.1562 Y2.0242 Z-0.1870 F100.0000
G1 X1.8125 Y2.0242 Z-0.1870 F100.0000
G2 X1.7812 Y2.0281 Z-0.1870 I-0.0026 J0.1058 F100.0000
G1 X0.9532 Y2.0281 Z-0.1870 F100.0000
G3 X0.9548 Y1.9559 Z-0.1870 I0.8618 J-0.0171 F100.0000
G2 X1.0179 Y1.9649 Z-0.1870 I0.0828 J-0.3562 F100.0000
G1 X27.9820 Y1.9649 Z-0.1870 F100.0000
G2 X28.0451 Y1.9559 Z-0.1870 I-0.0197 J-0.3650 F100.0000
G3 X28.0468 Y2.0281 Z-0.1870 I-1.3004 J0.0651 F100.0000
G1 X27.2201 Y2.0281 Z-0.1870 F100.0000
G0 Z0.1969
G0 X2.0627 Y2.2619 Z0.1969
G0 X2.0627 Y2.2619 Z0.1181
G1 X2.0627 Y2.2619 Z-0.1870 F20.0000
G1 X2.0627 Y26.7624 Z-0.1870 F100.0000
G1 X1.9060 Y26.7624 Z-0.1870 F100.0000
G1 X1.9060 Y2.2619 Z-0.1870 F100.0000
G1 X2.0627 Y2.2619 Z-0.1870 F100.0000
G0 Z0.1969
G0 X2.0160 Y2.3086 Z0.1969
G0 X2.0160 Y2.3086 Z0.1181
G1 X2.0160 Y2.3086 Z-0.1870 F20.0000
G1 X2.0160 Y26.7156 Z-0.1870 F100.0000
G1 X1.9527 Y26.7156 Z-0.1870 F100.0000
G1 X1.9527 Y2.3086 Z-0.1870 F100.0000
G1 X2.0160 Y2.3086 Z-0.1870 F100.0000
G1 X2.0160 Y2.3086 Z-0.2750 F20.0000
G1 X2.0160 Y26.7156 Z-0.2750 F100.0000
G1 X1.9527 Y26.7156 Z-0.2750 F100.0000
G1 X1.9527 Y2.3086 Z-0.2750 F100.0000
G1 X2.0160 Y2.3086 Z-0.2750 F100.0000
G0 Z0.1969
G0 X2.0627 Z0.1969
G0 X2.0627 Z0.1181
G1 X2.0627 Y2.3086 Z-0.2750 F20.0000
G1 X2.0627 Y26.7624 Z-0.2750 F100.0000
G1 X1.9060 Y26.7624 Z-0.2750 F100.0000
G1 X1.9060 Y2.2619 Z-0.2750 F100.0000
G1 X2.0627 Y2.2619 Z-0.2750 F100.0000
G1 X2.0627 Y2.3086 Z-0.2750 F100.0000
G0 Z0.1969
G0 Y2.0709 Z0.1969
G0 Y2.0709 Z0.1181
G1 X2.0627 Y2.0709 Z-0.2750 F20.0000
G1 X1.8125 Y2.0709 Z-0.2750 F100.0000
G2 X1.7870 Y2.0749 Z-0.2750 I-0.0019 J0.0723 F100.0000
G1 X0.9065 Y2.0749 Z-0.2750 F100.0000
G3 X0.9122 Y1.9009 Z-0.2750 I1.3454 J-0.0430 F100.0000
G1 X1.0017 Y1.9167 Z-0.2750 F100.0000
G1 X1.0179 Y1.9181 Z-0.2750 F100.0000
G1 X27.9820 Y1.9181 Z-0.2750 F100.0000
G1 X27.9983 Y1.9167 Z-0.2750 F100.0000
G1 X28.0878 Y1.9009 Z-0.2750 F100.0000
G3 X28.0935 Y2.0749 Z-0.2750 I-1.3582 J0.1315 F100.0000
G1 X27.2136 Y2.0749 Z-0.2750 F100.0000
G2 X27.1875 Y2.0709 Z-0.2750 I-0.0255 J0.0804 F100.0000
G1 X26.8437 Y2.0709 Z-0.2750 F100.0000
G2 X26.8182 Y2.0749 Z-0.2750 I-0.0019 J0.0723 F100.0000
G1 X2.1824 Y2.0749 Z-0.2750 F100.0000
G2 X2.1562 Y2.0709 Z-0.2750 I-0.0255 J0.0804 F100.0000
G1 X2.0627 Y2.0709 Z-0.2750 F100.0000
G0 Z0.1969
G0 Y2.0242 Z0.1969
G0 Y2.0242 Z0.1181
G1 X2.0627 Y2.0242 Z-0.2750 F20.0000
G1 X1.8125 Y2.0242 Z-0.2750 F100.0000
G2 X1.7812 Y2.0281 Z-0.2750 I-0.0026 J0.1058 F100.0000
G1 X0.9532 Y2.0281 Z-0.2750 F100.0000
G3 X0.9548 Y1.9559 Z-0.2750 I0.8618 J-0.0171 F100.0000
G2 X1.0179 Y1.9649 Z-0.2750 I0.0828 J-0.3562 F100.0000
G1 X27.9820 Y1.9649 Z-0.2750 F100.0000
G2 X28.0451 Y1.9559 Z-0.2750 I-0.0197 J-0.3650 F100.0000
G3 X28.0468 Y2.0281 Z-0.2750 I-1.3004 J0.0651 F100.0000
G1 X27.2201 Y2.0281 Z-0.2750 F100.0000
G1 X27.2187 Y2.0277 Z-0.2750 F100.0000
G1 X27.1875 Y2.0242 Z-0.2750 F100.0000
G1 X26.8437 Y2.0242 Z-0.2750 F100.0000
G2 X26.8124 Y2.0281 Z-0.2750 I-0.0026 J0.1058 F100.0000
G1 X2.1888 Y2.0281 Z-0.2750 F100.0000
G1 X2.1875 Y2.0277 Z-0.2750 F100.0000
G1 X2.1562 Y2.0242 Z-0.2750 F100.0000
G1 X2.0627 Y2.0242 Z-0.2750 F100.0000
G0 Z0.1969
G0 X26.9372 Y2.2619 Z0.1969
G0 X26.9372 Y2.2619 Z0.1181
G1 X26.9372 Y2.2619 Z-0.2750 F20.0000
G1 X27.0940 Y2.2619 Z-0.2750 F100.0000
G1 X27.0940 Y26.7624 Z-0.2750 F100.0000
G1 X26.9372 Y26.7624 Z-0.2750 F100.0000
G1 X26.9372 Y2.2619 Z-0.2750 F100.0000
G0 Z0.1969
G0 X26.9840 Y2.3086 Z0.1969
G0 X26.9840 Y2.3086 Z0.1181
G1 X26.9840 Y2.3086 Z-0.2750 F20.0000
G1 X27.0472 Y2.3086 Z-0.2750 F100.0000
G1 X27.0472 Y26.7156 Z-0.2750 F100.0000
G1 X26.9840 Y26.7156 Z-0.2750 F100.0000
G1 X26.9840 Y2.3086 Z-0.2750 F100.0000
G0 Z0.1969
G0 X26.7939 Y26.9494 Z0.1969
G0 X26.7939 Y26.9494 Z0.1181
G1 X26.7939 Y26.9494 Z-0.2750 F20.0000
G2 X26.8437 Y26.9642 Z-0.2750 I0.0491 J-0.0738 F100.0000
G1 X27.1875 Y26.9642 Z-0.2750 F100.0000
G2 X27.2376 Y26.9494 Z-0.2750 I0.0006 J-0.0902 F100.0000
G1 X28.0935 Y26.9494 Z-0.2750 F100.0000
G3 X28.0878 Y27.1233 Z-0.2750 I-1.3573 J0.0427 F100.0000
G1 X27.9983 Y27.1075 Z-0.2750 F100.0000
G1 X27.9820 Y27.1061 Z-0.2750 F100.0000
G1 X1.0179 Y27.1061 Z-0.2750 F100.0000
G1 X1.0017 Y27.1075 Z-0.2750 F100.0000
G1 X0.9122 Y27.1233 Z-0.2750 F100.0000
G3 X0.9065 Y26.9494 Z-0.2750 I1.3469 J-0.1312 F100.0000
G1 X1.7626 Y26.9494 Z-0.2750 F100.0000
G2 X1.8125 Y26.9642 Z-0.2750 I0.0491 J-0.0738 F100.0000
G1 X2.1562 Y26.9642 Z-0.2750 F100.0000
G2 X2.2064 Y26.9494 Z-0.2750 I0.0006 J-0.0902 F100.0000
G1 X26.7939 Y26.9494 Z-0.2750 F100.0000
G0 Z0.1969
G0 X26.7818 Y26.9961 Z0.1969
G0 X26.7818 Y26.9961 Z0.1181
G1 X26.7818 Y26.9961 Z-0.2750 F20.0000
G2 X26.8125 Y27.0074 Z-0.2750 I0.0529 J-0.0962 F100.0000
G1 X26.8437 Y27.0109 Z-0.2750 F100.0000
G1 X27.1875 Y27.0109 Z-0.2750 F100.0000
G2 X27.2500 Y26.9961 Z-0.2750 I0.0005 J-0.1369 F100.0000
G1 X28.0468 Y26.9961 Z-0.2750 F100.0000
G3 X28.0451 Y27.0683 Z-0.2750 I-0.8688 J0.0168 F100.0000
G2 X27.9820 Y27.0594 Z-0.2750 I-0.0828 J0.3559 F100.0000
G1 X1.0179 Y27.0594 Z-0.2750 F100.0000
G2 X0.9548 Y27.0683 Z-0.2750 I0.0197 J0.3651 F100.0000
G3 X0.9532 Y26.9961 Z-0.2750 I1.3131 J-0.0650 F100.0000
G1 X1.7506 Y26.9961 Z-0.2750 F100.0000
G2 X1.7813 Y27.0074 Z-0.2750 I0.0529 J-0.0962 F100.0000
G1 X1.8125 Y27.0109 Z-0.2750 F100.0000
G1 X2.1562 Y27.0109 Z-0.2750 F100.0000
G2 X2.2187 Y26.9961 Z-0.2750 I0.0005 J-0.1369 F100.0000
G1 X26.7818 Y26.9961 Z-0.2750 F100.0000
G1 X26.7818 Y26.9961 Z-0.3750 F20.0000
G2 X26.8125 Y27.0074 Z-0.3750 I0.0529 J-0.0962 F100.0000
G1 X26.8437 Y27.0109 Z-0.3750 F100.0000
G1 X27.1875 Y27.0109 Z-0.3750 F100.0000
G2 X27.2500 Y26.9961 Z-0.3750 I0.0005 J-0.1369 F100.0000
G1 X28.0468 Y26.9961 Z-0.3750 F100.0000
G3 X28.0451 Y27.0683 Z-0.3750 I-0.8688 J0.0168 F100.0000
G2 X27.9820 Y27.0594 Z-0.3750 I-0.0828 J0.3559 F100.0000
G1 X1.0179 Y27.0594 Z-0.3750 F100.0000
G2 X0.9548 Y27.0683 Z-0.3750 I0.0197 J0.3651 F100.0000
G3 X0.9532 Y26.9961 Z-0.3750 I1.3131 J-0.0650 F100.0000
G1 X1.7506 Y26.9961 Z-0.3750 F100.0000
G2 X1.7813 Y27.0074 Z-0.3750 I0.0529 J-0.0962 F100.0000
G1 X1.8125 Y27.0109 Z-0.3750 F100.0000
G1 X2.1562 Y27.0109 Z-0.3750 F100.0000
G2 X2.2187 Y26.9961 Z-0.3750 I0.0005 J-0.1369 F100.0000
G1 X26.7818 Y26.9961 Z-0.3750 F100.0000
G0 Z0.1969
G0 X26.8029 Y26.9546 Z0.1969
G0 X26.8029 Y26.9546 Z0.1181
G1 X26.8029 Y26.9546 Z-0.3750 F20.0000
G2 X26.8437 Y26.9642 Z-0.3750 I0.0401 J-0.0791 F100.0000
G1 X27.1875 Y26.9642 Z-0.3750 F100.0000
G2 X27.2376 Y26.9494 Z-0.3750 I0.0006 J-0.0902 F100.0000
G1 X28.0935 Y26.9494 Z-0.3750 F100.0000
G3 X28.0878 Y27.1233 Z-0.3750 I-1.3573 J0.0427 F100.0000
G1 X27.9983 Y27.1075 Z-0.3750 F100.0000
G1 X27.9820 Y27.1061 Z-0.3750 F100.0000
G1 X1.0179 Y27.1061 Z-0.3750 F100.0000
G1 X1.0017 Y27.1075 Z-0.3750 F100.0000
G1 X0.9122 Y27.1233 Z-0.3750 F100.0000
G3 X0.9065 Y26.9494 Z-0.3750 I1.3469 J-0.1312 F100.0000
G1 X1.7626 Y26.9494 Z-0.3750 F100.0000
G2 X1.8125 Y26.9642 Z-0.3750 I0.0491 J-0.0738 F100.0000
G1 X2.1562 Y26.9642 Z-0.3750 F100.0000
G2 X2.2064 Y26.9494 Z-0.3750 I0.0006 J-0.0902 F100.0000
G1 X26.7939 Y26.9494 Z-0.3750 F100.0000
G2 X26.8029 Y26.9546 Z-0.3750 I0.0491 J-0.0738 F100.0000
G0 Z0.1969
G0 X26.9372 Y26.7624 Z0.1969
G0 X26.9372 Y26.7624 Z0.1181
G1 X26.9372 Y26.7624 Z-0.3750 F20.0000
G1 X26.9372 Y2.2619 Z-0.3750 F100.0000
G1 X27.0940 Y2.2619 Z-0.3750 F100.0000
G1 X27.0940 Y26.7624 Z-0.3750 F100.0000
G1 X26.9372 Y26.7624 Z-0.3750 F100.0000
G0 Z0.1969
G0 X26.9840 Y26.7156 Z0.1969
G0 X26.9840 Y26.7156 Z0.1181
G1 X26.9840 Y26.7156 Z-0.3750 F20.0000
G1 X26.9840 Y2.3086 Z-0.3750 F100.0000
G1 X27.0472 Y2.3086 Z-0.3750 F100.0000
G1 X27.0472 Y26.7156 Z-0.3750 F100.0000
G1 X26.9840 Y26.7156 Z-0.3750 F100.0000
G0 Z0.1969
G0 X26.8182 Y2.0749 Z0.1969
G0 X26.8182 Y2.0749 Z0.1181
G1 X26.8182 Y2.0749 Z-0.3750 F20.0000
G1 X2.1824 Y2.0749 Z-0.3750 F100.0000
G2 X2.1562 Y2.0709 Z-0.3750 I-0.0255 J0.0804 F100.0000
G1 X1.8125 Y2.0709 Z-0.3750 F100.0000
G2 X1.7870 Y2.0749 Z-0.3750 I-0.0019 J0.0723 F100.0000
G1 X0.9065 Y2.0749 Z-0.3750 F100.0000
G3 X0.9122 Y1.9009 Z-0.3750 I1.3454 J-0.0430 F100.0000
G1 X1.0017 Y1.9167 Z-0.3750 F100.0000
G1 X1.0179 Y1.9181 Z-0.3750 F100.0000
G1 X27.9820 Y1.9181 Z-0.3750 F100.0000
G1 X27.9983 Y1.9167 Z-0.3750 F100.0000
G1 X28.0878 Y1.9009 Z-0.3750 F100.0000
G3 X28.0935 Y2.0749 Z-0.3750 I-1.3582 J0.1315 F100.0000
G1 X27.2136 Y2.0749 Z-0.3750 F100.0000
G2 X27.1875 Y2.0709 Z-0.3750 I-0.0255 J0.0804 F100.0000
G1 X26.8437 Y2.0709 Z-0.3750 F100.0000
G2 X26.8182 Y2.0749 Z-0.3750 I-0.0019 J0.0723 F100.0000
G0 Z0.1969
G0 X26.8124 Y2.0281 Z0.1969
G0 X26.8124 Y2.0281 Z0.1181
G1 X26.8124 Y2.0281 Z-0.3750 F20.0000
G1 X2.1888 Y2.0281 Z-0.3750 F100.0000
G1 X2.1875 Y2.0277 Z-0.3750 F100.0000
G1 X2.1562 Y2.0242 Z-0.3750 F100.0000
G1 X1.8125 Y2.0242 Z-0.3750 F100.0000
G2 X1.7812 Y2.0281 Z-0.3750 I-0.0026 J0.1058 F100.0000
G1 X0.9532 Y2.0281 Z-0.3750 F100.0000
G3 X0.9548 Y1.9559 Z-0.3750 I0.8618 J-0.0171 F100.0000
G2 X1.0179 Y1.9649 Z-0.3750 I0.0828 J-0.3562 F100.0000
G1 X27.9820 Y1.9649 Z-0.3750 F100.0000
G2 X28.0451 Y1.9559 Z-0.3750 I-0.0197 J-0.3650 F100.0000
G3 X28.0468 Y2.0281 Z-0.3750 I-1.3004 J0.0651 F100.0000
G1 X27.2201 Y2.0281 Z-0.3750 F100.0000
G1 X27.2187 Y2.0277 Z-0.3750 F100.0000
G1 X27.1875 Y2.0242 Z-0.3750 F100.0000
G1 X26.8437 Y2.0242 Z-0.3750 F100.0000
G2 X26.8124 Y2.0281 Z-0.3750 I-0.0026 J0.1058 F100.0000
G0 Z0.1969
G0 X2.0627 Y2.2619 Z0.1969
G0 X2.0627 Y2.2619 Z0.1181
G1 X2.0627 Y2.2619 Z-0.3750 F20.0000
G1 X2.0627 Y26.7624 Z-0.3750 F100.0000
G1 X1.9060 Y26.7624 Z-0.3750 F100.0000
G1 X1.9060 Y2.2619 Z-0.3750 F100.0000
G1 X2.0627 Y2.2619 Z-0.3750 F100.0000
G0 Z0.1969
G0 X2.0160 Y2.3086 Z0.1969
G0 X2.0160 Y2.3086 Z0.1181
G1 X2.0160 Y2.3086 Z-0.3750 F20.0000
G1 X2.0160 Y26.7156 Z-0.3750 F100.0000
G1 X1.9527 Y26.7156 Z-0.3750 F100.0000
G1 X1.9527 Y2.3086 Z-0.3750 F100.0000
G1 X2.0160 Y2.3086 Z-0.3750 F100.0000
G0 Z0.1969
G0 Z0.1969
(finish operation: Pocket_Shape)
(begin operation: SpeTool 1/4" Downcut Carbide End Mill001)
(machine: mach3_4, in/min)
(SpeTool 1/4" Downcut Carbide End Mill001)
M5
M6 T2 
G43 H2
M3 S12000
(finish operation: SpeTool 1/4" Downcut Carbide End Mill001)
(begin operation: RampEntryPerimeter)
(machine: mach3_4, in/min)
G0 X0.0000 Y0.0000 Z0.1969
G0 X27.7956 Y27.8075 Z0.1969
G0 X27.7956 Y27.8075 Z0.1181
G1 X27.8323 Y27.7690 Z0.0875 F100.0000
G1 X27.8671 Y27.7289 Z0.0568 F100.0000
G1 X27.8999 Y27.6872 Z0.0261 F100.0000
G1 X27.9308 Y27.6440 Z-0.0047 F100.0000
G1 X27.9596 Y27.5993 Z-0.0354 F100.0000
G1 X27.9862 Y27.5533 Z-0.0659 F100.0000
G1 X27.9596 Y27.5993 Z-0.0965 F100.0000
G1 X27.9308 Y27.6440 Z-0.1272 F100.0000
G1 X27.8999 Y27.6872 Z-0.1580 F100.0000
G1 X27.8671 Y27.7289 Z-0.1887 F100.0000
G1 X27.8323 Y27.7690 Z-0.2194 F100.0000
G1 X27.7956 Y27.8075 Z-0.2500 F100.0000
G2 X28.1250 Y27.0156 Z-0.2500 I-0.7956 J-0.7954 F100.0000
G1 X28.1250 Y2.0121 Z-0.2500 F100.0000
G2 X27.0315 Y0.8876 Z-0.2500 I-1.1250 J0.0000 F100.0000
G1 X1.9751 Y0.8874 Z-0.2500 F100.0000
G2 X0.8750 Y2.0087 Z-0.2500 I0.0249 J1.1247 F100.0000
G1 X0.8750 Y27.0121 Z-0.2500 F100.0000
G2 X1.9685 Y28.1366 Z-0.2500 I1.1251 J-0.0001 F100.0000
G1 X27.0249 Y28.1368 Z-0.2500 F100.0000
G2 X27.7956 Y27.8075 Z-0.2500 I-0.0249 J-1.1247 F100.0000
G1 X27.8329 Y27.7683 Z-0.2812 F100.0000
G1 X27.8683 Y27.7274 Z-0.3125 F100.0000
G1 X27.9017 Y27.6848 Z-0.3438 F100.0000
G1 X27.9330 Y27.6406 Z-0.3750 F100.0000
G1 X27.9017 Y27.6848 Z-0.4062 F100.0000
G1 X27.8683 Y27.7274 Z-0.4375 F100.0000
G1 X27.8329 Y27.7683 Z-0.4688 F100.0000
G1 X27.7956 Y27.8075 Z-0.5000 F100.0000
G2 X28.1250 Y27.0156 Z-0.5000 I-0.7956 J-0.7954 F100.0000
G1 X28.1250 Y2.0121 Z-0.5000 F100.0000
G2 X27.0315 Y0.8876 Z-0.5000 I-1.1250 J0.0000 F100.0000
G1 X1.9751 Y0.8874 Z-0.5000 F100.0000
G2 X0.8750 Y2.0087 Z-0.5000 I0.0249 J1.1247 F100.0000
G1 X0.8750 Y27.0121 Z-0.5000 F100.0000
G2 X1.9685 Y28.1366 Z-0.5000 I1.1251 J-0.0001 F100.0000
G1 X27.0249 Y28.1368 Z-0.5000 F100.0000
G2 X27.7956 Y27.8075 Z-0.5000 I-0.0249 J-1.1247 F100.0000
G1 X27.8329 Y27.7683 Z-0.5312 F100.0000
G1 X27.8683 Y27.7274 Z-0.5625 F100.0000
G1 X27.9017 Y27.6848 Z-0.5938 F100.0000
G1 X27.9330 Y27.6406 Z-0.6250 F100.0000
G1 X27.9017 Y27.6848 Z-0.6562 F100.0000
G1 X27.8683 Y27.7274 Z-0.6875 F100.0000
G1 X27.8329 Y27.7683 Z-0.7188 F100.0000
G1 X27.7956 Y27.8075 Z-0.7500 F100.0000
G2 X28.1250 Y27.0156 Z-0.7500 I-0.7956 J-0.7954 F100.0000
G1 X28.1250 Y22.1292 Z-0.7500 F100.0000
G1 X28.1250 Y21.8872 Z-0.5080 F100.0000
G1 X28.1250 Y19.6422 Z-0.5080 F100.0000
G1 X28.1250 Y19.4002 Z-0.7500 F100.0000
G1 X28.1250 Y9.6275 Z-0.7500 F100.0000
G1 X28.1250 Y9.3855 Z-0.5080 F100.0000
G1 X28.1250 Y7.1405 Z-0.5080 F100.0000
G1 X28.1250 Y6.8985 Z-0.7500 F100.0000
G1 X28.1250 Y2.0121 Z-0.7500 F100.0000
G2 X27.0315 Y0.8876 Z-0.7500 I-1.1250 J0.0000 F100.0000
G1 X22.1319 Y0.8876 Z-0.7500 F100.0000
G1 X21.8899 Y0.8876 Z-0.5080 F100.0000
G1 X19.6449 Y0.8876 Z-0.5080 F100.0000
G1 X19.4029 Y0.8876 Z-0.7500 F100.0000
G1 X9.6037 Y0.8875 Z-0.7500 F100.0000
G1 X9.3617 Y0.8875 Z-0.5080 F100.0000
G1 X7.1167 Y0.8875 Z-0.5080 F100.0000
G1 X6.8747 Y0.8875 Z-0.7500 F100.0000
G1 X1.9751 Y0.8874 Z-0.7500 F100.0000
G2 X0.8750 Y2.0087 Z-0.7500 I0.0249 J1.1247 F100.0000
G1 X0.8750 Y6.8950 Z-0.7500 F100.0000
G1 X0.8750 Y7.1370 Z-0.5080 F100.0000
G1 X0.8750 Y9.3820 Z-0.5080 F100.0000
G1 X0.8750 Y9.6240 Z-0.7500 F100.0000
G1 X0.8750 Y19.3968 Z-0.7500 F100.0000
G1 X0.8750 Y19.6388 Z-0.5080 F100.0000
G1 X0.8750 Y21.8838 Z-0.5080 F100.0000
G1 X0.8750 Y22.1258 Z-0.7500 F100.0000
G1 X0.8750 Y27.0121 Z-0.7500 F100.0000
G2 X1.9685 Y28.1366 Z-0.7500 I1.1251 J-0.0001 F100.0000
G1 X6.8681 Y28.1367 Z-0.7500 F100.0000
G1 X7.1101 Y28.1367 Z-0.5080 F100.0000
G1 X9.3551 Y28.1367 Z-0.5080 F100.0000
G1 X9.5971 Y28.1367 Z-0.7500 F100.0000
G1 X19.3963 Y28.1368 Z-0.7500 F100.0000
G1 X19.6383 Y28.1368 Z-0.5080 F100.0000
G1 X21.8833 Y28.1368 Z-0.5080 F100.0000
G1 X22.1253 Y28.1368 Z-0.7500 F100.0000
G1 X27.0249 Y28.1368 Z-0.7500 F100.0000
G2 X27.7956 Y27.8075 Z-0.7500 I-0.0249 J-1.1247 F100.0000
G1 X27.8005 Y27.8026 Z-0.7540 F100.0000
G1 X27.7956 Y27.8075 Z-0.7580 F100.0000
G2 X28.1250 Y27.0156 Z-0.7580 I-0.7956 J-0.7954 F100.0000
G1 X28.1250 Y22.1372 Z-0.7580 F100.0000
G1 X28.1250 Y21.8872 Z-0.5080 F100.0000
G1 X28.1250 Y19.6422 Z-0.5080 F100.0000
G1 X28.1250 Y19.3922 Z-0.7580 F100.0000
G1 X28.1250 Y9.6355 Z-0.7580 F100.0000
G1 X28.1250 Y9.3855 Z-0.5080 F100.0000
G1 X28.1250 Y7.1405 Z-0.5080 F100.0000
G1 X28.1250 Y6.8905 Z-0.7580 F100.0000
G1 X28.1250 Y2.0121 Z-0.7580 F100.0000
G2 X27.0315 Y0.8876 Z-0.7580 I-1.1250 J0.0000 F100.0000
G1 X22.1399 Y0.8876 Z-0.7580 F100.0000
G1 X21.8899 Y0.8876 Z-0.5080 F100.0000
G1 X19.6449 Y0.8876 Z-0.5080 F100.0000
G1 X19.3949 Y0.8876 Z-0.7580 F100.0000
G1 X9.6117 Y0.8875 Z-0.7580 F100.0000
G1 X9.3617 Y0.8875 Z-0.5080 F100.0000
G1 X7.1167 Y0.8875 Z-0.5080 F100.0000
G1 X6.8667 Y0.8875 Z-0.7580 F100.0000
G1 X1.9751 Y0.8874 Z-0.7580 F100.0000
G2 X0.8750 Y2.0087 Z-0.7580 I0.0249 J1.1247 F100.0000
G1 X0.8750 Y6.8870 Z-0.7580 F100.0000
G1 X0.8750 Y7.1370 Z-0.5080 F100.0000
G1 X0.8750 Y9.3820 Z-0.5080 F100.0000
G1 X0.8750 Y9.6320 Z-0.7580 F100.0000
G1 X0.8750 Y19.3888 Z-0.7580 F100.0000
G1 X0.8750 Y19.6388 Z-0.5080 F100.0000
G1 X0.8750 Y21.8838 Z-0.5080 F100.0000
G1 X0.8750 Y22.1338 Z-0.7580 F100.0000
G1 X0.8750 Y27.0121 Z-0.7580 F100.0000
G2 X1.9685 Y28.1366 Z-0.7580 I1.1251 J-0.0001 F100.0000
G1 X6.8601 Y28.1367 Z-0.7580 F100.0000
G1 X7.1101 Y28.1367 Z-0.5080 F100.0000
G1 X9.3551 Y28.1367 Z-0.5080 F100.0000
G1 X9.6051 Y28.1367 Z-0.7580 F100.0000
G1 X19.3883 Y28.1368 Z-0.7580 F100.0000
G1 X19.6383 Y28.1368 Z-0.5080 F100.0000
G1 X21.8833 Y28.1368 Z-0.5080 F100.0000
G1 X22.1333 Y28.1368 Z-0.7580 F100.0000
G1 X27.0249 Y28.1368 Z-0.7580 F100.0000
G2 X27.7956 Y27.8075 Z-0.7580 I-0.0249 J-1.1247 F100.0000
G0 X27.7956 Y27.8075 Z0.1969
(finish operation: RampEntryPerimeter)
(begin postamble)
M05
G17 G54 G90 G80 G40
M2
