(Exported by FreeCAD)
(Post Processor: mach3_mach4_post)
(Output Time:2024-07-14 17:30:54.998575)
(begin preamble)
G17 G54 G40 G49 G80 G90
G20
(begin operation: Fixture)
(machine: mach3_4, in/min)
G54
(finish operation: Fixture)
(begin operation: SpeTool 1/4" Downcut Carbide End Mill001)
(machine: mach3_4, in/min)
(SpeTool 1/4" Downcut Carbide End Mill001)
M5
M6 T2 
G43 H2
M3 S12000
(finish operation: SpeTool 1/4" Downcut Carbide End Mill001)
(begin operation: RampEntryCutout)
(machine: mach3_4, in/min)
G0 X0.0000 Y0.0000 Z0.1969
G0 X3.1789 Y2.9771 Z0.1969
G0 X3.1789 Y2.9771 Z0.1181
G1 X3.1435 Y3.0168 Z0.0875 F100.0000
G1 X3.1100 Y3.0580 Z0.0568 F100.0000
G1 X3.0785 Y3.1008 Z0.0261 F100.0000
G1 X3.0491 Y3.1450 Z-0.0047 F100.0000
G1 X3.0218 Y3.1905 Z-0.0354 F100.0000
G1 X2.9966 Y3.2374 Z-0.0659 F100.0000
G1 X3.0218 Y3.1905 Z-0.0965 F100.0000
G1 X3.0491 Y3.1450 Z-0.1272 F100.0000
G1 X3.0785 Y3.1008 Z-0.1580 F100.0000
G1 X3.1100 Y3.0580 Z-0.1887 F100.0000
G1 X3.1435 Y3.0168 Z-0.2194 F100.0000
G1 X3.1789 Y2.9771 Z-0.2500 F100.0000
G2 X2.8750 Y3.7476 Z-0.2500 I0.8211 J0.7690 F100.0000
G1 X2.8750 Y18.4945 Z-0.2500 F100.0000
G2 X3.9720 Y19.6207 Z-0.2500 I1.1250 J0.0015 F100.0000
G1 X7.8094 Y19.6207 Z-0.2500 F100.0000
G1 X7.9344 Y19.6207 Z-0.1250 F100.0000
G1 X9.9125 Y19.6207 Z-0.1250 F100.0000
G1 X10.0375 Y19.6207 Z-0.2500 F100.0000
G1 X17.7125 Y19.6207 Z-0.2500 F100.0000
G1 X17.8375 Y19.6207 Z-0.1250 F100.0000
G1 X19.8156 Y19.6207 Z-0.1250 F100.0000
G1 X19.9406 Y19.6207 Z-0.2500 F100.0000
G1 X23.7781 Y19.6207 Z-0.2500 F100.0000
G2 X24.8750 Y18.4945 Z-0.2500 I-0.0281 J-1.1247 F100.0000
G1 X24.8750 Y3.7476 Z-0.2500 F100.0000
G2 X23.7781 Y2.6215 Z-0.2500 I-1.1250 J-0.0015 F100.0000
G1 X19.9406 Y2.6215 Z-0.2500 F100.0000
G1 X19.8156 Y2.6215 Z-0.1250 F100.0000
G1 X17.8375 Y2.6215 Z-0.1250 F100.0000
G1 X17.7125 Y2.6215 Z-0.2500 F100.0000
G1 X10.0375 Y2.6215 Z-0.2500 F100.0000
G1 X9.9125 Y2.6215 Z-0.1250 F100.0000
G1 X7.9344 Y2.6215 Z-0.1250 F100.0000
G1 X7.8094 Y2.6215 Z-0.2500 F100.0000
G1 X3.9720 Y2.6215 Z-0.2500 F100.0000
G2 X3.1789 Y2.9771 Z-0.2500 I0.0281 J1.1247 F100.0000
G0 X3.1789 Y2.9771 Z0.1969
(finish operation: RampEntryCutout)
(begin operation: RampEntryOutside)
(machine: mach3_4, in/min)
G0 X0.0000 Y0.0000 Z0.1969
G0 X1.3919 Y0.8083 Z0.1969
G0 X1.3919 Y0.8083 Z0.1181
G1 X1.3846 Y0.8230 Z0.1087 F100.0000
G1 X1.3793 Y0.8386 Z0.0991 F100.0000
G1 X1.3761 Y0.8546 Z0.0896 F100.0000
G1 X1.3750 Y0.8711 Z0.0801 F100.0000
G1 X1.3750 Y1.1241 Z-0.0659 F100.0000
G1 X1.3750 Y0.8711 Z-0.2120 F100.0000
G1 X1.3761 Y0.8546 Z-0.2215 F100.0000
G1 X1.3793 Y0.8386 Z-0.2310 F100.0000
G1 X1.3846 Y0.8230 Z-0.2406 F100.0000
G1 X1.3919 Y0.8083 Z-0.2500 F100.0000
G2 X1.3750 Y0.8711 Z-0.2500 I0.1081 J0.0628 F100.0000
G1 X1.3750 Y3.9962 Z-0.2500 F100.0000
G1 X0.7407 Y3.9962 Z-0.2500 F100.0000
G2 X0.2501 Y4.4904 Z-0.2500 I0.0095 J0.4999 F100.0000
G1 X0.2500 Y7.7461 Z-0.2500 F100.0000
G2 X0.7319 Y8.2456 Z-0.2500 I0.5001 J-0.0002 F100.0000
G1 X1.3750 Y8.2459 Z-0.2500 F100.0000
G1 X1.3750 Y9.7598 Z-0.2500 F100.0000
G1 X1.3750 Y9.8848 Z-0.1250 F100.0000
G1 X1.3750 Y12.3573 Z-0.1250 F100.0000
G1 X1.3750 Y12.4823 Z-0.2500 F100.0000
G1 X1.3750 Y13.9962 Z-0.2500 F100.0000
G1 X0.7407 Y13.9962 Z-0.2500 F100.0000
G2 X0.2501 Y14.4904 Z-0.2500 I0.0095 J0.4999 F100.0000
G1 X0.2500 Y17.7461 Z-0.2500 F100.0000
G2 X0.7319 Y18.2456 Z-0.2500 I0.5001 J-0.0002 F100.0000
G1 X1.3750 Y18.2459 Z-0.2500 F100.0000
G1 X1.3750 Y20.9961 Z-0.2500 F100.0000
G2 X1.5000 Y21.1211 Z-0.2500 I0.1250 J-0.0000 F100.0000
G1 X3.7501 Y21.1211 Z-0.2500 F100.0000
G1 X3.7501 Y21.7554 Z-0.2500 F100.0000
G2 X4.2443 Y22.2459 Z-0.2500 I0.4999 J-0.0095 F100.0000
G1 X7.5000 Y22.2461 Z-0.2500 F100.0000
G2 X7.9996 Y21.7642 Z-0.2500 I-0.0002 J-0.5001 F100.0000
G1 X7.9998 Y21.1211 Z-0.2500 F100.0000
G1 X11.7501 Y21.1211 Z-0.2500 F100.0000
G1 X11.7501 Y21.7554 Z-0.2500 F100.0000
G2 X12.2443 Y22.2459 Z-0.2500 I0.4999 J-0.0095 F100.0000
G1 X15.5000 Y22.2461 Z-0.2500 F100.0000
G2 X15.9996 Y21.7642 Z-0.2500 I-0.0002 J-0.5001 F100.0000
G1 X15.9998 Y21.1211 Z-0.2500 F100.0000
G1 X19.7501 Y21.1211 Z-0.2500 F100.0000
G1 X19.7501 Y21.7554 Z-0.2500 F100.0000
G2 X20.2443 Y22.2459 Z-0.2500 I0.4999 J-0.0095 F100.0000
G1 X23.5000 Y22.2461 Z-0.2500 F100.0000
G2 X23.9996 Y21.7642 Z-0.2500 I-0.0002 J-0.5001 F100.0000
G1 X23.9998 Y21.1211 Z-0.2500 F100.0000
G1 X26.2500 Y21.1211 Z-0.2500 F100.0000
G2 X26.3750 Y20.9961 Z-0.2500 I-0.0000 J-0.1250 F100.0000
G1 X26.3750 Y18.2459 Z-0.2500 F100.0000
G1 X27.0093 Y18.2459 Z-0.2500 F100.0000
G2 X27.4999 Y17.7517 Z-0.2500 I-0.0095 J-0.4999 F100.0000
G1 X27.5000 Y14.4961 Z-0.2500 F100.0000
G2 X27.0181 Y13.9965 Z-0.2500 I-0.5001 J0.0002 F100.0000
G1 X26.3750 Y13.9962 Z-0.2500 F100.0000
G1 X26.3750 Y13.9199 Z-0.2500 F100.0000
G1 X26.3750 Y13.7949 Z-0.1250 F100.0000
G1 X26.3750 Y11.3224 Z-0.1250 F100.0000
G1 X26.3750 Y11.1974 Z-0.2500 F100.0000
G1 X26.3750 Y11.0448 Z-0.2500 F100.0000
G1 X26.3750 Y10.9198 Z-0.1250 F100.0000
G1 X26.3750 Y8.4473 Z-0.1250 F100.0000
G1 X26.3750 Y8.3223 Z-0.2500 F100.0000
G1 X26.3750 Y8.2459 Z-0.2500 F100.0000
G1 X27.0093 Y8.2459 Z-0.2500 F100.0000
G2 X27.4999 Y7.7517 Z-0.2500 I-0.0095 J-0.4999 F100.0000
G1 X27.5000 Y4.4961 Z-0.2500 F100.0000
G2 X27.0181 Y3.9965 Z-0.2500 I-0.5001 J0.0002 F100.0000
G1 X26.3750 Y3.9962 Z-0.2500 F100.0000
G1 X26.3750 Y0.8711 Z-0.2500 F100.0000
G2 X26.2500 Y0.7461 Z-0.2500 I-0.1250 J0.0000 F100.0000
G1 X15.2363 Y0.7461 Z-0.2500 F100.0000
G1 X15.1113 Y0.7461 Z-0.1250 F100.0000
G1 X12.6388 Y0.7461 Z-0.1250 F100.0000
G1 X12.5138 Y0.7461 Z-0.2500 F100.0000
G1 X1.5000 Y0.7461 Z-0.2500 F100.0000
G2 X1.3919 Y0.8083 Z-0.2500 I0.0000 J0.1250 F100.0000
G0 X1.3919 Y0.8083 Z0.1969
(finish operation: RampEntryOutside)
(begin postamble)
M05
G17 G54 G90 G80 G40
M2
