(Exported by FreeCAD)
(Post Processor: mach3_mach4_post)
(Output Time:2024-07-14 11:37:38.022136)
(begin preamble)
G17 G54 G40 G49 G80 G90
G20
(begin operation: Fixture)
(machine: mach3_4, in/min)
G54
(finish operation: Fixture)
(begin operation: SpeTool 1/4" Downcut Carbide End Mill001)
(machine: mach3_4, in/min)
(SpeTool 1/4" Downcut Carbide End Mill001)
M5
M6 T2 
G43 H2
M3 S12000
(finish operation: SpeTool 1/4" Downcut Carbide End Mill001)
(begin operation: RampEntryDressup)
(machine: mach3_4, in/min)
G0 X0.0000 Y0.0000 Z0.1969
G0 X2.5115 Y7.5313 Z0.1969
G0 X2.5115 Y7.5313 Z0.1181
G1 X2.5146 Y7.5268 Z0.1150 F100.0000
G1 X2.5160 Y7.5216 Z0.1118 F100.0000
G1 X2.5156 Y7.5162 Z0.1087 F100.0000
G1 X2.5156 Y7.2138 Z-0.0659 F100.0000
G1 X2.5156 Y7.5162 Z-0.2405 F100.0000
G1 X2.5160 Y7.5216 Z-0.2436 F100.0000
G1 X2.5146 Y7.5268 Z-0.2469 F100.0000
G1 X2.5115 Y7.5313 Z-0.2500 F100.0000
G2 X2.5156 Y7.5162 Z-0.2500 I-0.0112 J-0.0112 F100.0000
G1 X2.5156 Y3.5253 Z-0.2500 F100.0000
G2 X2.5034 Y3.5058 Z-0.2500 I-0.0166 J-0.0032 F100.0000
G2 X2.4844 Y3.5253 Z-0.2500 I-0.0032 J0.0160 F100.0000
G1 X2.4844 Y7.5162 Z-0.2500 F100.0000
G2 X2.4853 Y7.5250 Z-0.2500 I0.0310 J0.0011 F100.0000
G2 X2.5115 Y7.5313 Z-0.2500 I0.0150 J-0.0048 F100.0000
G0 X2.5115 Y7.5313 Z0.1969
(finish operation: RampEntryDressup)
(begin operation: RampEntryDressup001)
(machine: mach3_4, in/min)
G0 X0.0000 Y0.0000 Z0.1969
G0 X2.5115 Y15.5313 Z0.1969
G0 X2.5115 Y15.5313 Z0.1181
G1 X2.5146 Y15.5268 Z0.1150 F100.0000
G1 X2.5160 Y15.5216 Z0.1118 F100.0000
G1 X2.5156 Y15.5162 Z0.1087 F100.0000
G1 X2.5156 Y15.2138 Z-0.0659 F100.0000
G1 X2.5156 Y15.5162 Z-0.2405 F100.0000
G1 X2.5160 Y15.5216 Z-0.2436 F100.0000
G1 X2.5146 Y15.5268 Z-0.2469 F100.0000
G1 X2.5115 Y15.5313 Z-0.2500 F100.0000
G2 X2.5156 Y15.5162 Z-0.2500 I-0.0112 J-0.0112 F100.0000
G1 X2.5156 Y11.5253 Z-0.2500 F100.0000
G2 X2.5034 Y11.5058 Z-0.2500 I-0.0166 J-0.0032 F100.0000
G2 X2.4844 Y11.5253 Z-0.2500 I-0.0032 J0.0160 F100.0000
G1 X2.4844 Y15.5162 Z-0.2500 F100.0000
G2 X2.4853 Y15.5250 Z-0.2500 I0.0310 J0.0011 F100.0000
G2 X2.5115 Y15.5313 Z-0.2500 I0.0150 J-0.0048 F100.0000
G0 X2.5115 Y15.5313 Z0.1969
(finish operation: RampEntryDressup001)
(begin operation: RampEntryDressup002)
(machine: mach3_4, in/min)
G0 X0.0000 Y0.0000 Z0.1969
G0 X2.5115 Y23.5313 Z0.1969
G0 X2.5115 Y23.5313 Z0.1181
G1 X2.5146 Y23.5268 Z0.1150 F100.0000
G1 X2.5160 Y23.5216 Z0.1118 F100.0000
G1 X2.5156 Y23.5162 Z0.1087 F100.0000
G1 X2.5156 Y23.2138 Z-0.0659 F100.0000
G1 X2.5156 Y23.5162 Z-0.2405 F100.0000
G1 X2.5160 Y23.5216 Z-0.2436 F100.0000
G1 X2.5146 Y23.5268 Z-0.2469 F100.0000
G1 X2.5115 Y23.5313 Z-0.2500 F100.0000
G2 X2.5156 Y23.5162 Z-0.2500 I-0.0112 J-0.0112 F100.0000
G1 X2.5156 Y19.5253 Z-0.2500 F100.0000
G2 X2.5034 Y19.5058 Z-0.2500 I-0.0166 J-0.0032 F100.0000
G2 X2.4844 Y19.5253 Z-0.2500 I-0.0032 J0.0160 F100.0000
G1 X2.4844 Y23.5162 Z-0.2500 F100.0000
G2 X2.4853 Y23.5250 Z-0.2500 I0.0310 J0.0011 F100.0000
G2 X2.5115 Y23.5313 Z-0.2500 I0.0150 J-0.0048 F100.0000
G0 X2.5115 Y23.5313 Z0.1969
(finish operation: RampEntryDressup002)
(begin operation: RampEntryDressup003)
(machine: mach3_4, in/min)
G0 X0.0000 Y0.0000 Z0.1969
G0 X27.5115 Y23.5313 Z0.1969
G0 X27.5115 Y23.5313 Z0.1181
G1 X27.5146 Y23.5268 Z0.1150 F100.0000
G1 X27.5160 Y23.5216 Z0.1118 F100.0000
G1 X27.5156 Y23.5162 Z0.1087 F100.0000
G1 X27.5156 Y23.2138 Z-0.0659 F100.0000
G1 X27.5156 Y23.5162 Z-0.2405 F100.0000
G1 X27.5160 Y23.5216 Z-0.2436 F100.0000
G1 X27.5146 Y23.5268 Z-0.2469 F100.0000
G1 X27.5115 Y23.5313 Z-0.2500 F100.0000
G2 X27.5156 Y23.5162 Z-0.2500 I-0.0112 J-0.0112 F100.0000
G1 X27.5156 Y19.5253 Z-0.2500 F100.0000
G2 X27.5034 Y19.5058 Z-0.2500 I-0.0166 J-0.0032 F100.0000
G2 X27.4844 Y19.5253 Z-0.2500 I-0.0032 J0.0160 F100.0000
G1 X27.4844 Y23.5162 Z-0.2500 F100.0000
G2 X27.4853 Y23.5250 Z-0.2500 I0.0310 J0.0011 F100.0000
G2 X27.5115 Y23.5313 Z-0.2500 I0.0150 J-0.0048 F100.0000
G0 X27.5115 Y23.5313 Z0.1969
(finish operation: RampEntryDressup003)
(begin operation: RampEntryDressup004)
(machine: mach3_4, in/min)
G0 X0.0000 Y0.0000 Z0.1969
G0 X27.5115 Y15.5313 Z0.1969
G0 X27.5115 Y15.5313 Z0.1181
G1 X27.5146 Y15.5268 Z0.1150 F100.0000
G1 X27.5160 Y15.5216 Z0.1118 F100.0000
G1 X27.5156 Y15.5162 Z0.1087 F100.0000
G1 X27.5156 Y15.2138 Z-0.0659 F100.0000
G1 X27.5156 Y15.5162 Z-0.2405 F100.0000
G1 X27.5160 Y15.5216 Z-0.2436 F100.0000
G1 X27.5146 Y15.5268 Z-0.2469 F100.0000
G1 X27.5115 Y15.5313 Z-0.2500 F100.0000
G2 X27.5156 Y15.5162 Z-0.2500 I-0.0112 J-0.0112 F100.0000
G1 X27.5156 Y11.5253 Z-0.2500 F100.0000
G2 X27.5034 Y11.5058 Z-0.2500 I-0.0166 J-0.0032 F100.0000
G2 X27.4844 Y11.5253 Z-0.2500 I-0.0032 J0.0160 F100.0000
G1 X27.4844 Y15.5162 Z-0.2500 F100.0000
G2 X27.4853 Y15.5250 Z-0.2500 I0.0310 J0.0011 F100.0000
G2 X27.5115 Y15.5313 Z-0.2500 I0.0150 J-0.0048 F100.0000
G0 X27.5115 Y15.5313 Z0.1969
(finish operation: RampEntryDressup004)
(begin operation: RampEntryDressup005)
(machine: mach3_4, in/min)
G0 X0.0000 Y0.0000 Z0.1969
G0 X27.5115 Y7.5313 Z0.1969
G0 X27.5115 Y7.5313 Z0.1181
G1 X27.5146 Y7.5268 Z0.1150 F100.0000
G1 X27.5160 Y7.5216 Z0.1118 F100.0000
G1 X27.5156 Y7.5162 Z0.1087 F100.0000
G1 X27.5156 Y7.2138 Z-0.0659 F100.0000
G1 X27.5156 Y7.5162 Z-0.2405 F100.0000
G1 X27.5160 Y7.5216 Z-0.2436 F100.0000
G1 X27.5146 Y7.5268 Z-0.2469 F100.0000
G1 X27.5115 Y7.5313 Z-0.2500 F100.0000
G2 X27.5156 Y7.5162 Z-0.2500 I-0.0112 J-0.0112 F100.0000
G1 X27.5156 Y3.5253 Z-0.2500 F100.0000
G2 X27.5034 Y3.5058 Z-0.2500 I-0.0166 J-0.0032 F100.0000
G2 X27.4844 Y3.5253 Z-0.2500 I-0.0032 J0.0160 F100.0000
G1 X27.4844 Y7.5162 Z-0.2500 F100.0000
G2 X27.4853 Y7.5250 Z-0.2500 I0.0310 J0.0011 F100.0000
G2 X27.5115 Y7.5313 Z-0.2500 I0.0150 J-0.0048 F100.0000
G0 X27.5115 Y7.5313 Z0.1969
(finish operation: RampEntryDressup005)
(begin operation: RampEntryInside)
(machine: mach3_4, in/min)
G0 X0.0000 Y0.0000 Z0.1969
G0 X25.5974 Y19.1177 Z0.1969
G0 X25.5974 Y19.1177 Z0.1181
G1 X25.6415 Y19.0716 Z0.0814 F100.0000
G1 X25.6833 Y19.0235 Z0.0445 F100.0000
G1 X25.7228 Y18.9735 Z0.0076 F100.0000
G1 X25.7600 Y18.9218 Z-0.0292 F100.0000
G1 X25.7948 Y18.8683 Z-0.0659 F100.0000
G1 X25.7600 Y18.9218 Z-0.1027 F100.0000
G1 X25.7228 Y18.9735 Z-0.1395 F100.0000
G1 X25.6833 Y19.0235 Z-0.1764 F100.0000
G1 X25.6415 Y19.0716 Z-0.2132 F100.0000
G1 X25.5974 Y19.1177 Z-0.2500 F100.0000
G2 X26.0000 Y18.1442 Z-0.2500 I-0.9724 J-0.9721 F100.0000
G1 X26.0000 Y3.8971 Z-0.2500 F100.0000
G2 X24.6594 Y2.5211 Z-0.2500 I-1.3750 J-0.0014 F100.0000
G1 X20.9194 Y2.5211 Z-0.2500 F100.0000
G1 X20.7944 Y2.5211 Z-0.1250 F100.0000
G1 X18.8650 Y2.5211 Z-0.1250 F100.0000
G1 X18.7400 Y2.5211 Z-0.2500 F100.0000
G1 X11.2600 Y2.5211 Z-0.2500 F100.0000
G1 X11.1350 Y2.5211 Z-0.1250 F100.0000
G1 X9.2056 Y2.5211 Z-0.1250 F100.0000
G1 X9.0806 Y2.5211 Z-0.2500 F100.0000
G1 X5.3406 Y2.5211 Z-0.2500 F100.0000
G2 X4.0000 Y3.8971 Z-0.2500 I0.0344 J1.3746 F100.0000
G1 X4.0000 Y18.1443 Z-0.2500 F100.0000
G2 X5.3406 Y19.5202 Z-0.2500 I1.3750 J0.0014 F100.0000
G1 X9.0806 Y19.5202 Z-0.2500 F100.0000
G1 X9.2056 Y19.5202 Z-0.1250 F100.0000
G1 X11.1350 Y19.5202 Z-0.1250 F100.0000
G1 X11.2600 Y19.5202 Z-0.2500 F100.0000
G1 X18.7400 Y19.5202 Z-0.2500 F100.0000
G1 X18.8650 Y19.5202 Z-0.1250 F100.0000
G1 X20.7944 Y19.5202 Z-0.1250 F100.0000
G1 X20.9194 Y19.5202 Z-0.2500 F100.0000
G1 X24.6594 Y19.5202 Z-0.2500 F100.0000
G2 X25.5974 Y19.1177 Z-0.2500 I-0.0344 J-1.3746 F100.0000
G0 X25.5974 Y19.1177 Z0.1969
(finish operation: RampEntryInside)
(begin operation: OutsideRampEntry)
(machine: mach3_4, in/min)
G0 X0.0000 Y0.0000 Z0.1969
G0 X28.5124 Y26.0200 Z0.1969
G0 X28.5124 Y26.0200 Z0.1181
G1 X28.5310 Y26.0165 Z0.1085 F100.0000
G1 X28.5486 Y26.0105 Z0.0983 F100.0000
G1 X28.5649 Y26.0023 Z0.0875 F100.0000
G1 X28.5797 Y25.9919 Z0.0763 F100.0000
G1 X28.5927 Y25.9795 Z0.0650 F100.0000
G1 X28.6037 Y25.9654 Z0.0537 F100.0000
G1 X28.6126 Y25.9497 Z0.0426 F100.0000
G1 X28.6191 Y25.9326 Z0.0318 F100.0000
G1 X28.6233 Y25.9145 Z0.0215 F100.0000
G1 X28.6250 Y25.8957 Z0.0119 F100.0000
G1 X28.6250 Y25.7608 Z-0.0659 F100.0000
G1 X28.6250 Y25.8957 Z-0.1438 F100.0000
G1 X28.6233 Y25.9145 Z-0.1534 F100.0000
G1 X28.6191 Y25.9326 Z-0.1637 F100.0000
G1 X28.6126 Y25.9497 Z-0.1745 F100.0000
G1 X28.6037 Y25.9654 Z-0.1856 F100.0000
G1 X28.5927 Y25.9795 Z-0.1969 F100.0000
G1 X28.5797 Y25.9919 Z-0.2082 F100.0000
G1 X28.5649 Y26.0023 Z-0.2194 F100.0000
G1 X28.5486 Y26.0105 Z-0.2302 F100.0000
G1 X28.5310 Y26.0165 Z-0.2404 F100.0000
G1 X28.5124 Y26.0200 Z-0.2500 F100.0000
G2 X28.6250 Y25.8957 Z-0.2500 I-0.0124 J-0.1244 F100.0000
G1 X28.6250 Y14.8819 Z-0.2500 F100.0000
G1 X28.6250 Y14.7569 Z-0.1250 F100.0000
G1 X28.6250 Y12.2844 Z-0.1250 F100.0000
G1 X28.6250 Y12.1594 Z-0.2500 F100.0000
G1 X28.6250 Y1.1457 Z-0.2500 F100.0000
G2 X28.5000 Y1.0207 Z-0.2500 I-0.1250 J0.0000 F100.0000
G1 X25.1249 Y1.0207 Z-0.2500 F100.0000
G1 X25.1249 Y0.3863 Z-0.2500 F100.0000
G2 X24.6307 Y-0.1042 Z-0.2500 I-0.4999 J0.0095 F100.0000
G1 X21.3750 Y-0.1043 Z-0.2500 F100.0000
G2 X20.8754 Y0.3775 Z-0.2500 I0.0002 J0.5001 F100.0000
G1 X20.8752 Y1.0207 Z-0.2500 F100.0000
G1 X17.1249 Y1.0207 Z-0.2500 F100.0000
G1 X17.1249 Y0.3863 Z-0.2500 F100.0000
G2 X16.6307 Y-0.1042 Z-0.2500 I-0.4999 J0.0095 F100.0000
G1 X13.3750 Y-0.1043 Z-0.2500 F100.0000
G2 X12.8754 Y0.3775 Z-0.2500 I0.0002 J0.5001 F100.0000
G1 X12.8752 Y1.0207 Z-0.2500 F100.0000
G1 X9.1249 Y1.0207 Z-0.2500 F100.0000
G1 X9.1249 Y0.3863 Z-0.2500 F100.0000
G2 X8.6307 Y-0.1042 Z-0.2500 I-0.4999 J0.0095 F100.0000
G1 X5.3750 Y-0.1043 Z-0.2500 F100.0000
G2 X4.8754 Y0.3775 Z-0.2500 I0.0002 J0.5001 F100.0000
G1 X4.8752 Y1.0207 Z-0.2500 F100.0000
G1 X1.5000 Y1.0207 Z-0.2500 F100.0000
G2 X1.3750 Y1.1457 Z-0.2500 I0.0000 J0.1250 F100.0000
G1 X1.3750 Y5.9719 Z-0.2500 F100.0000
G1 X1.3750 Y6.0969 Z-0.1250 F100.0000
G1 X1.3750 Y8.5694 Z-0.1250 F100.0000
G1 X1.3750 Y8.6944 Z-0.2500 F100.0000
G1 X1.3750 Y18.3469 Z-0.2500 F100.0000
G1 X1.3750 Y18.4719 Z-0.1250 F100.0000
G1 X1.3750 Y20.9444 Z-0.1250 F100.0000
G1 X1.3750 Y21.0694 Z-0.2500 F100.0000
G1 X1.3750 Y25.8957 Z-0.2500 F100.0000
G2 X1.5000 Y26.0207 Z-0.2500 I0.1250 J-0.0000 F100.0000
G1 X4.8751 Y26.0207 Z-0.2500 F100.0000
G1 X4.8751 Y26.6550 Z-0.2500 F100.0000
G2 X5.3693 Y27.1455 Z-0.2500 I0.4999 J-0.0095 F100.0000
G1 X8.6250 Y27.1457 Z-0.2500 F100.0000
G2 X9.1246 Y26.6638 Z-0.2500 I-0.0002 J-0.5001 F100.0000
G1 X9.1248 Y26.0207 Z-0.2500 F100.0000
G1 X12.8751 Y26.0207 Z-0.2500 F100.0000
G1 X12.8751 Y26.6550 Z-0.2500 F100.0000
G2 X13.3693 Y27.1455 Z-0.2500 I0.4999 J-0.0095 F100.0000
G1 X16.6250 Y27.1457 Z-0.2500 F100.0000
G2 X17.1246 Y26.6638 Z-0.2500 I-0.0002 J-0.5001 F100.0000
G1 X17.1248 Y26.0207 Z-0.2500 F100.0000
G1 X20.8751 Y26.0207 Z-0.2500 F100.0000
G1 X20.8751 Y26.6550 Z-0.2500 F100.0000
G2 X21.3693 Y27.1455 Z-0.2500 I0.4999 J-0.0095 F100.0000
G1 X24.6250 Y27.1457 Z-0.2500 F100.0000
G2 X25.1246 Y26.6638 Z-0.2500 I-0.0002 J-0.5001 F100.0000
G1 X25.1248 Y26.0207 Z-0.2500 F100.0000
G1 X28.5000 Y26.0207 Z-0.2500 F100.0000
G2 X28.5124 Y26.0200 Z-0.2500 I-0.0000 J-0.1250 F100.0000
G0 X28.5124 Y26.0200 Z0.1969
(finish operation: OutsideRampEntry)
(begin postamble)
M05
G17 G54 G90 G80 G40
M2
