(Exported by FreeCAD)
(Post Processor: mach3_mach4_post)
(Output Time:2024-07-14 11:05:31.267898)
(begin preamble)
G17 G54 G40 G49 G80 G90
G20
(begin operation: Fixture)
(machine: mach3_4, in/min)
G54
(finish operation: Fixture)
(begin operation: SpeTool 1/4" Downcut Carbide End Mill001)
(machine: mach3_4, in/min)
(SpeTool 1/4" Downcut Carbide End Mill001)
M5
M6 T2 
G43 H2
M3 S1200
(finish operation: SpeTool 1/4" Downcut Carbide End Mill001)
(begin operation: RampEntryDressup)
(machine: mach3_4, in/min)
G0 X0.0000 Y0.0000 Z0.1969
G0 X2.5115 Y8.1317 Z0.1969
G0 X2.5115 Y8.1317 Z0.1181
G1 X2.5146 Y8.1272 Z0.1150 F100.0000
G1 X2.5160 Y8.1220 Z0.1118 F100.0000
G1 X2.5156 Y8.1166 Z0.1087 F100.0000
G1 X2.5156 Y7.8142 Z-0.0659 F100.0000
G1 X2.5156 Y8.1166 Z-0.2405 F100.0000
G1 X2.5160 Y8.1220 Z-0.2436 F100.0000
G1 X2.5146 Y8.1272 Z-0.2469 F100.0000
G1 X2.5115 Y8.1317 Z-0.2500 F100.0000
G2 X2.5156 Y8.1166 Z-0.2500 I-0.0112 J-0.0112 F100.0000
G1 X2.5156 Y4.1257 Z-0.2500 F100.0000
G2 X2.5034 Y4.1062 Z-0.2500 I-0.0166 J-0.0032 F100.0000
G2 X2.4844 Y4.1257 Z-0.2500 I-0.0032 J0.0160 F100.0000
G1 X2.4844 Y8.1166 Z-0.2500 F100.0000
G2 X2.4853 Y8.1254 Z-0.2500 I0.0310 J0.0011 F100.0000
G2 X2.5115 Y8.1317 Z-0.2500 I0.0150 J-0.0048 F100.0000
G0 X2.5115 Y8.1317 Z0.1969
(finish operation: RampEntryDressup)
(begin operation: RampEntryDressup001)
(machine: mach3_4, in/min)
G0 X0.0000 Y0.0000 Z0.1969
G0 X2.5115 Y18.1317 Z0.1969
G0 X2.5115 Y18.1317 Z0.1181
G1 X2.5146 Y18.1272 Z0.1150 F100.0000
G1 X2.5160 Y18.1220 Z0.1118 F100.0000
G1 X2.5156 Y18.1166 Z0.1087 F100.0000
G1 X2.5156 Y17.8142 Z-0.0659 F100.0000
G1 X2.5156 Y18.1166 Z-0.2405 F100.0000
G1 X2.5160 Y18.1220 Z-0.2436 F100.0000
G1 X2.5146 Y18.1272 Z-0.2469 F100.0000
G1 X2.5115 Y18.1317 Z-0.2500 F100.0000
G2 X2.5156 Y18.1166 Z-0.2500 I-0.0112 J-0.0112 F100.0000
G1 X2.5156 Y14.1257 Z-0.2500 F100.0000
G2 X2.5034 Y14.1062 Z-0.2500 I-0.0166 J-0.0032 F100.0000
G2 X2.4844 Y14.1257 Z-0.2500 I-0.0032 J0.0160 F100.0000
G1 X2.4844 Y18.1166 Z-0.2500 F100.0000
G2 X2.4853 Y18.1254 Z-0.2500 I0.0310 J0.0011 F100.0000
G2 X2.5115 Y18.1317 Z-0.2500 I0.0150 J-0.0048 F100.0000
G0 X2.5115 Y18.1317 Z0.1969
(finish operation: RampEntryDressup001)
(begin operation: RampEntryDressup002)
(machine: mach3_4, in/min)
G0 X0.0000 Y0.0000 Z0.1969
G0 X9.0104 Y21.1321 Z0.1969
G0 X9.0104 Y21.1321 Z0.1181
G1 X9.0140 Y21.1257 Z0.1151 F100.0000
G1 X9.0150 Y21.1190 Z0.1109 F100.0000
G1 X9.0132 Y21.1129 Z0.1061 F100.0000
G1 X9.0089 Y21.1083 Z0.1012 F100.0000
G1 X9.0027 Y21.1057 Z0.0970 F100.0000
G1 X8.9953 Y21.1054 Z0.0940 F100.0000
G1 X8.7183 Y21.1054 Z-0.0659 F100.0000
G1 X8.9953 Y21.1054 Z-0.2259 F100.0000
G1 X9.0027 Y21.1057 Z-0.2289 F100.0000
G1 X9.0089 Y21.1083 Z-0.2331 F100.0000
G1 X9.0132 Y21.1129 Z-0.2379 F100.0000
G1 X9.0150 Y21.1190 Z-0.2428 F100.0000
G1 X9.0140 Y21.1257 Z-0.2470 F100.0000
G1 X9.0104 Y21.1321 Z-0.2500 F100.0000
G2 X8.9953 Y21.1054 Z-0.2500 I-0.0109 J-0.0114 F100.0000
G1 X5.0045 Y21.1054 Z-0.2500 F100.0000
G2 X4.9957 Y21.1064 Z-0.2500 I-0.0011 J0.0310 F100.0000
G2 X5.0045 Y21.1367 Z-0.2500 I0.0048 J0.0150 F100.0000
G1 X8.9953 Y21.1367 Z-0.2500 F100.0000
G2 X9.0045 Y21.1357 Z-0.2500 I0.0012 J-0.0310 F100.0000
G2 X9.0104 Y21.1321 Z-0.2500 I-0.0051 J-0.0150 F100.0000
G0 X9.0104 Y21.1321 Z0.1969
(finish operation: RampEntryDressup002)
(begin operation: RampEntryDressup003)
(machine: mach3_4, in/min)
G0 X0.0000 Y0.0000 Z0.1969
G0 X17.0104 Y21.1321 Z0.1969
G0 X17.0104 Y21.1321 Z0.1181
G1 X17.0140 Y21.1257 Z0.1151 F100.0000
G1 X17.0150 Y21.1191 Z0.1109 F100.0000
G1 X17.0133 Y21.1130 Z0.1061 F100.0000
G1 X17.0090 Y21.1084 Z0.1013 F100.0000
G1 X17.0029 Y21.1057 Z0.0971 F100.0000
G1 X16.9955 Y21.1054 Z0.0941 F100.0000
G1 X16.7182 Y21.1054 Z-0.0659 F100.0000
G1 X16.9955 Y21.1054 Z-0.2260 F100.0000
G1 X17.0029 Y21.1057 Z-0.2290 F100.0000
G1 X17.0090 Y21.1084 Z-0.2332 F100.0000
G1 X17.0133 Y21.1130 Z-0.2380 F100.0000
G1 X17.0150 Y21.1191 Z-0.2428 F100.0000
G1 X17.0140 Y21.1257 Z-0.2470 F100.0000
G1 X17.0104 Y21.1321 Z-0.2500 F100.0000
G2 X16.9955 Y21.1054 Z-0.2500 I-0.0109 J-0.0114 F100.0000
G1 X13.0045 Y21.1054 Z-0.2500 F100.0000
G2 X12.9957 Y21.1064 Z-0.2500 I-0.0011 J0.0310 F100.0000
G2 X13.0045 Y21.1367 Z-0.2500 I0.0048 J0.0150 F100.0000
G1 X16.9955 Y21.1367 Z-0.2500 F100.0000
G2 X17.0043 Y21.1357 Z-0.2500 I0.0011 J-0.0310 F100.0000
G2 X17.0104 Y21.1321 Z-0.2500 I-0.0048 J-0.0150 F100.0000
G0 X17.0104 Y21.1321 Z0.1969
(finish operation: RampEntryDressup003)
(begin operation: RampEntryDressup004)
(machine: mach3_4, in/min)
G0 X0.0000 Y0.0000 Z0.1969
G0 X25.0104 Y21.1321 Z0.1969
G0 X25.0104 Y21.1321 Z0.1181
G1 X25.0140 Y21.1257 Z0.1151 F100.0000
G1 X25.0150 Y21.1191 Z0.1109 F100.0000
G1 X25.0133 Y21.1130 Z0.1061 F100.0000
G1 X25.0090 Y21.1084 Z0.1013 F100.0000
G1 X25.0029 Y21.1057 Z0.0971 F100.0000
G1 X24.9955 Y21.1054 Z0.0941 F100.0000
G1 X24.7182 Y21.1054 Z-0.0659 F100.0000
G1 X24.9955 Y21.1054 Z-0.2260 F100.0000
G1 X25.0029 Y21.1057 Z-0.2290 F100.0000
G1 X25.0090 Y21.1084 Z-0.2332 F100.0000
G1 X25.0133 Y21.1130 Z-0.2380 F100.0000
G1 X25.0150 Y21.1191 Z-0.2428 F100.0000
G1 X25.0140 Y21.1257 Z-0.2470 F100.0000
G1 X25.0104 Y21.1321 Z-0.2500 F100.0000
G2 X24.9955 Y21.1054 Z-0.2500 I-0.0109 J-0.0114 F100.0000
G1 X21.0045 Y21.1054 Z-0.2500 F100.0000
G2 X20.9957 Y21.1064 Z-0.2500 I-0.0011 J0.0310 F100.0000
G2 X21.0045 Y21.1367 Z-0.2500 I0.0048 J0.0150 F100.0000
G1 X24.9955 Y21.1367 Z-0.2500 F100.0000
G2 X25.0043 Y21.1357 Z-0.2500 I0.0011 J-0.0310 F100.0000
G2 X25.0104 Y21.1321 Z-0.2500 I-0.0048 J-0.0150 F100.0000
G0 X25.0104 Y21.1321 Z0.1969
(finish operation: RampEntryDressup004)
(begin operation: RampEntryDressup005)
(machine: mach3_4, in/min)
G0 X0.0000 Y0.0000 Z0.1969
G0 X27.5115 Y18.1317 Z0.1969
G0 X27.5115 Y18.1317 Z0.1181
G1 X27.5146 Y18.1272 Z0.1150 F100.0000
G1 X27.5160 Y18.1220 Z0.1118 F100.0000
G1 X27.5156 Y18.1166 Z0.1087 F100.0000
G1 X27.5156 Y17.8142 Z-0.0659 F100.0000
G1 X27.5156 Y18.1166 Z-0.2405 F100.0000
G1 X27.5160 Y18.1220 Z-0.2436 F100.0000
G1 X27.5146 Y18.1272 Z-0.2469 F100.0000
G1 X27.5115 Y18.1317 Z-0.2500 F100.0000
G2 X27.5156 Y18.1166 Z-0.2500 I-0.0112 J-0.0112 F100.0000
G1 X27.5156 Y14.1257 Z-0.2500 F100.0000
G2 X27.5056 Y14.1068 Z-0.2500 I-0.0168 J-0.0032 F100.0000
G2 X27.4844 Y14.1257 Z-0.2500 I-0.0055 J0.0152 F100.0000
G1 X27.4844 Y18.1166 Z-0.2500 F100.0000
G2 X27.4853 Y18.1254 Z-0.2500 I0.0310 J0.0011 F100.0000
G2 X27.5115 Y18.1317 Z-0.2500 I0.0150 J-0.0048 F100.0000
G0 X27.5115 Y18.1317 Z0.1969
(finish operation: RampEntryDressup005)
(begin operation: RampEntryDressup006)
(machine: mach3_4, in/min)
G0 X0.0000 Y0.0000 Z0.1969
G0 X27.5115 Y8.1317 Z0.1969
G0 X27.5115 Y8.1317 Z0.1181
G1 X27.5146 Y8.1272 Z0.1150 F100.0000
G1 X27.5160 Y8.1220 Z0.1118 F100.0000
G1 X27.5156 Y8.1166 Z0.1087 F100.0000
G1 X27.5156 Y7.8142 Z-0.0659 F100.0000
G1 X27.5156 Y8.1166 Z-0.2405 F100.0000
G1 X27.5160 Y8.1220 Z-0.2436 F100.0000
G1 X27.5146 Y8.1272 Z-0.2469 F100.0000
G1 X27.5115 Y8.1317 Z-0.2500 F100.0000
G2 X27.5156 Y8.1166 Z-0.2500 I-0.0112 J-0.0112 F100.0000
G1 X27.5156 Y4.1257 Z-0.2500 F100.0000
G2 X27.5056 Y4.1068 Z-0.2500 I-0.0168 J-0.0032 F100.0000
G2 X27.4844 Y4.1257 Z-0.2500 I-0.0055 J0.0152 F100.0000
G1 X27.4844 Y8.1166 Z-0.2500 F100.0000
G2 X27.4853 Y8.1254 Z-0.2500 I0.0310 J0.0011 F100.0000
G2 X27.5115 Y8.1317 Z-0.2500 I0.0150 J-0.0048 F100.0000
G0 X27.5115 Y8.1317 Z0.1969
(finish operation: RampEntryDressup006)
(begin operation: RampEntryDressup007)
(machine: mach3_4, in/min)
G0 X0.0000 Y0.0000 Z0.1969
G0 X24.6706 Y19.2914 Z0.1969
G0 X24.6706 Y19.2914 Z0.1181
G1 X24.7073 Y19.2529 Z0.0875 F100.0000
G1 X24.7421 Y19.2128 Z0.0568 F100.0000
G1 X24.7749 Y19.1710 Z0.0261 F100.0000
G1 X24.8058 Y19.1278 Z-0.0047 F100.0000
G1 X24.8346 Y19.0832 Z-0.0354 F100.0000
G1 X24.8612 Y19.0372 Z-0.0659 F100.0000
G1 X24.8346 Y19.0832 Z-0.0965 F100.0000
G1 X24.8058 Y19.1278 Z-0.1272 F100.0000
G1 X24.7749 Y19.1710 Z-0.1580 F100.0000
G1 X24.7421 Y19.2128 Z-0.1887 F100.0000
G1 X24.7073 Y19.2529 Z-0.2194 F100.0000
G1 X24.6706 Y19.2914 Z-0.2500 F100.0000
G2 X25.0000 Y18.4945 Z-0.2500 I-0.7957 J-0.7954 F100.0000
G1 X25.0000 Y12.2448 Z-0.2500 F100.0000
G1 X25.0000 Y12.1198 Z-0.1250 F100.0000
G1 X25.0000 Y10.1223 Z-0.1250 F100.0000
G1 X25.0000 Y9.9973 Z-0.2500 F100.0000
G1 X25.0000 Y3.7476 Z-0.2500 F100.0000
G2 X23.9031 Y2.6215 Z-0.2500 I-1.1250 J-0.0015 F100.0000
G1 X20.3253 Y2.6215 Z-0.2500 F100.0000
G1 X20.2003 Y2.6215 Z-0.1250 F100.0000
G1 X18.2028 Y2.6215 Z-0.1250 F100.0000
G1 X18.0778 Y2.6215 Z-0.2500 F100.0000
G1 X10.9222 Y2.6215 Z-0.2500 F100.0000
G1 X10.7972 Y2.6215 Z-0.1250 F100.0000
G1 X8.7997 Y2.6215 Z-0.1250 F100.0000
G1 X8.6747 Y2.6215 Z-0.2500 F100.0000
G1 X5.0970 Y2.6215 Z-0.2500 F100.0000
G2 X4.0000 Y3.7476 Z-0.2500 I0.0281 J1.1247 F100.0000
G1 X4.0000 Y9.9973 Z-0.2500 F100.0000
G1 X4.0000 Y10.1223 Z-0.1250 F100.0000
G1 X4.0000 Y12.1198 Z-0.1250 F100.0000
G1 X4.0000 Y12.2448 Z-0.2500 F100.0000
G1 X4.0000 Y18.4945 Z-0.2500 F100.0000
G2 X5.0970 Y19.6207 Z-0.2500 I1.1250 J0.0015 F100.0000
G1 X8.6747 Y19.6207 Z-0.2500 F100.0000
G1 X8.7997 Y19.6207 Z-0.1250 F100.0000
G1 X10.7972 Y19.6207 Z-0.1250 F100.0000
G1 X10.9222 Y19.6207 Z-0.2500 F100.0000
G1 X18.0778 Y19.6207 Z-0.2500 F100.0000
G1 X18.2028 Y19.6207 Z-0.1250 F100.0000
G1 X20.2003 Y19.6207 Z-0.1250 F100.0000
G1 X20.3253 Y19.6207 Z-0.2500 F100.0000
G1 X23.9031 Y19.6207 Z-0.2500 F100.0000
G2 X24.6706 Y19.2914 Z-0.2500 I-0.0281 J-1.1247 F100.0000
G0 X24.6706 Y19.2914 Z0.1969
(finish operation: RampEntryDressup007)
(begin operation: RampEntryDressup008)
(machine: mach3_4, in/min)
G0 X0.0000 Y0.0000 Z0.1969
G0 X28.5884 Y22.2095 Z0.1969
G0 X28.5884 Y22.2095 Z0.1181
G1 X28.6012 Y22.1944 Z0.1070 F100.0000
G1 X28.6114 Y22.1778 Z0.0955 F100.0000
G1 X28.6189 Y22.1597 Z0.0840 F100.0000
G1 X28.6234 Y22.1407 Z0.0726 F100.0000
G1 X28.6250 Y22.1211 Z0.0614 F100.0000
G1 X28.6250 Y21.9004 Z-0.0659 F100.0000
G1 X28.6250 Y22.1211 Z-0.1933 F100.0000
G1 X28.6234 Y22.1407 Z-0.2044 F100.0000
G1 X28.6189 Y22.1597 Z-0.2159 F100.0000
G1 X28.6114 Y22.1778 Z-0.2274 F100.0000
G1 X28.6012 Y22.1944 Z-0.2389 F100.0000
G1 X28.5884 Y22.2095 Z-0.2500 F100.0000
G2 X28.6250 Y22.1211 Z-0.2500 I-0.0884 J-0.0884 F100.0000
G1 X28.6250 Y12.9698 Z-0.2500 F100.0000
G1 X28.6250 Y12.8448 Z-0.1250 F100.0000
G1 X28.6250 Y10.1473 Z-0.1250 F100.0000
G1 X28.6250 Y10.0223 Z-0.2500 F100.0000
G1 X28.6250 Y0.8711 Z-0.2500 F100.0000
G2 X28.5000 Y0.7461 Z-0.2500 I-0.1250 J0.0000 F100.0000
G1 X23.2237 Y0.7461 Z-0.2500 F100.0000
G1 X23.0988 Y0.7461 Z-0.1250 F100.0000
G1 X20.4013 Y0.7461 Z-0.1250 F100.0000
G1 X20.2763 Y0.7461 Z-0.2500 F100.0000
G1 X9.7238 Y0.7461 Z-0.2500 F100.0000
G1 X9.5988 Y0.7461 Z-0.1250 F100.0000
G1 X6.9013 Y0.7461 Z-0.1250 F100.0000
G1 X6.7763 Y0.7461 Z-0.2500 F100.0000
G1 X1.5000 Y0.7461 Z-0.2500 F100.0000
G2 X1.3750 Y0.8711 Z-0.2500 I0.0000 J0.1250 F100.0000
G1 X1.3750 Y10.0223 Z-0.2500 F100.0000
G1 X1.3750 Y10.1473 Z-0.1250 F100.0000
G1 X1.3750 Y12.8448 Z-0.1250 F100.0000
G1 X1.3750 Y12.9698 Z-0.2500 F100.0000
G1 X1.3750 Y22.1211 Z-0.2500 F100.0000
G2 X1.5000 Y22.2461 Z-0.2500 I0.1250 J-0.0000 F100.0000
G1 X6.7763 Y22.2461 Z-0.2500 F100.0000
G1 X6.9013 Y22.2461 Z-0.1250 F100.0000
G1 X9.5988 Y22.2461 Z-0.1250 F100.0000
G1 X9.7238 Y22.2461 Z-0.2500 F100.0000
G1 X20.2762 Y22.2461 Z-0.2500 F100.0000
G1 X20.4013 Y22.2461 Z-0.1250 F100.0000
G1 X23.0987 Y22.2461 Z-0.1250 F100.0000
G1 X23.2237 Y22.2461 Z-0.2500 F100.0000
G1 X28.5000 Y22.2461 Z-0.2500 F100.0000
G2 X28.5884 Y22.2095 Z-0.2500 I-0.0000 J-0.1250 F100.0000
G0 X28.5884 Y22.2095 Z0.1969
(finish operation: RampEntryDressup008)
(begin postamble)
M05
G17 G54 G90 G80 G40
M2
